X:0019
T:The 22nd. Regts. Quick Step.
M:2/4
L:1/8
Q:1/4=88
I: :: ::
%% E  G  A  B  c  d  e ^f  g  a
Z:Jack Campin * www.campin.me.uk * 2009
K:G
E|AcB>A|BA`AE     |AcBA  |(d/c/``B/A/) G
d|AcBA |BA A(f/g/)|a>fg>e|(d/c/``B/A/) G:|
d|e>fed|eA`Ad     |e>fe>g|(d/c/)(B/A/) G
d|e>fed|eA A(f/g/)|afge  |(d/c/)(B/A/) G:|

